X:381
T: SOLLEN NUN DIE GRUENEN JAHRE
N: B0455
O: Europa, Mitteleuropa, Deutschland
R: Liebes - Lied, Leid, Klage, Tod
M: 4/4
L: 1/4
K: G
 | GABd | cBAA
BAGA | GFG2
GABd | cBAA
BAGA | GFG2
FGAA | GFEE
FGAB | cBA2
GABd | cBAA
BAGA | GFG2

